assets/images/chicons/pizza.svg

<svg width="98" height="82" viewBox="0 0 98 82" fill="none" xmlns="http://www.w3.org/2000/svg">
<g filter="url(#filter0_d)">
<g filter="url(#filter1_d)">
<path d="M11.3333 46L88 35.0645V57.3303C88 58.3735 87.1982 59.2414 86.1583 59.324L12.4444 65.1778L11.3333 46Z" fill="#EDC08A"/>
</g>
<g filter="url(#filter2_d)">
<path d="M11.3333 46L84.7778 38.5089V55.2572C84.7778 55.6186 84.5769 55.9433 84.2296 56.0432C83.7186 56.1901 82.8092 56.3775 81.3333 56.4595C79.5977 56.556 76.5 56.9076 71.5 57.4076C66.5 57.9076 62 56 58 57.5C54 59 47 62 42.5 60.7971C38 59.5942 38 58 34 59C30 60 29 64 24 64C19 64 18 60.6818 15.7778 60.6818C15.1125 60.6818 14.4471 61.1136 13.8415 61.7188C13.0828 62.4768 11.3333 62.017 11.3333 60.9446C11.3333 58.885 11.3333 56.4036 11.3333 54.1111C11.3333 48.9041 11.3333 46 11.3333 46Z" fill="#FFFCDD"/>
</g>
<path fill-rule="evenodd" clip-rule="evenodd" d="M45.7778 10.62C46.1388 8.81481 45.0837 3.657 46.8889 4.01804C56.2912 5.8985 80.8135 18.2294 87.785 31.3614C87.931 31.6364 88 31.9462 88 32.2577C87.9993 40.7116 87.9595 40.6666 85.7778 40.6666C71.0125 15.1111 45.7778 12.8422 45.7778 10.62Z" fill="#CB7F5A"/>
<path d="M85 35C85 33.8954 85.8954 33 87 33H88V53H85V35Z" fill="#EDC08A"/>
<g filter="url(#filter3_i)">
<path d="M65.7778 19.5555C56.354 14.4153 45.7778 10.62 45.7778 10.62C45.7778 10.62 40.5326 18.0421 35.7778 22.8889C31.4559 27.2944 25.7778 30.6667 22.4266 34C20.2427 36.1723 14.7781 42.0727 11.2364 45.9194C10.5024 46.7166 11.487 48.2009 12.5342 47.9225C14.6379 47.3632 17.3158 46.8348 20.2222 46.709C22.6738 46.6029 35.7778 48 45.7778 44.5C58.4631 40.0601 70 43.5 73.5556 43.2988C77.1111 43.0977 85 42.5 85 39.5C85 36.5 78 26.2222 65.7778 19.5555Z" fill="#BF2626"/>
</g>
</g>
<defs>
<filter id="filter0_d" x="-2" y="0" width="100" height="81.1778" filterUnits="userSpaceOnUse" color-interpolation-filters="sRGB">
<feFlood flood-opacity="0" result="BackgroundImageFix"/>
<feColorMatrix in="SourceAlpha" type="matrix" values="0 0 0 0 0 0 0 0 0 0 0 0 0 0 0 0 0 0 127 0"/>
<feOffset dy="6"/>
<feGaussianBlur stdDeviation="5"/>
<feColorMatrix type="matrix" values="0 0 0 0 0 0 0 0 0 0 0 0 0 0 0 0 0 0 0.1 0"/>
<feBlend mode="normal" in2="BackgroundImageFix" result="effect1_dropShadow"/>
<feBlend mode="normal" in="SourceGraphic" in2="effect1_dropShadow" result="shape"/>
</filter>
<filter id="filter1_d" x="11.3333" y="35.0645" width="76.6667" height="32.1133" filterUnits="userSpaceOnUse" color-interpolation-filters="sRGB">
<feFlood flood-opacity="0" result="BackgroundImageFix"/>
<feColorMatrix in="SourceAlpha" type="matrix" values="0 0 0 0 0 0 0 0 0 0 0 0 0 0 0 0 0 0 127 0"/>
<feOffset dy="2"/>
<feColorMatrix type="matrix" values="0 0 0 0 0.717647 0 0 0 0 0.419608 0 0 0 0 0.27451 0 0 0 1 0"/>
<feBlend mode="normal" in2="BackgroundImageFix" result="effect1_dropShadow"/>
<feBlend mode="normal" in="SourceGraphic" in2="effect1_dropShadow" result="shape"/>
</filter>
<filter id="filter2_d" x="11.3333" y="38.5089" width="73.4444" height="26.9911" filterUnits="userSpaceOnUse" color-interpolation-filters="sRGB">
<feFlood flood-opacity="0" result="BackgroundImageFix"/>
<feColorMatrix in="SourceAlpha" type="matrix" values="0 0 0 0 0 0 0 0 0 0 0 0 0 0 0 0 0 0 127 0"/>
<feOffset dy="1.5"/>
<feColorMatrix type="matrix" values="0 0 0 0 1 0 0 0 0 0.937667 0 0 0 0 0.816667 0 0 0 1 0"/>
<feBlend mode="normal" in2="BackgroundImageFix" result="effect1_dropShadow"/>
<feBlend mode="normal" in="SourceGraphic" in2="effect1_dropShadow" result="shape"/>
</filter>
<filter id="filter3_i" x="10.982" y="10.62" width="74.018" height="37.3368" filterUnits="userSpaceOnUse" color-interpolation-filters="sRGB">
<feFlood flood-opacity="0" result="BackgroundImageFix"/>
<feBlend mode="normal" in="SourceGraphic" in2="BackgroundImageFix" result="shape"/>
<feColorMatrix in="SourceAlpha" type="matrix" values="0 0 0 0 0 0 0 0 0 0 0 0 0 0 0 0 0 0 127 0" result="hardAlpha"/>
<feOffset dx="-12" dy="3"/>
<feComposite in2="hardAlpha" operator="arithmetic" k2="-1" k3="1"/>
<feColorMatrix type="matrix" values="0 0 0 0 0 0 0 0 0 0 0 0 0 0 0 0 0 0 0.15 0"/>
<feBlend mode="normal" in2="shape" result="effect1_innerShadow"/>
</filter>
</defs>
</svg>

<svg width="98" height="82" fill="none" xmlns="http://www.w3.org/2000/svg"><g filter="url(#filter0_d)"><path d="M11.333 46L88 35.065V57.33a2 2 0 0 1-1.842 1.994l-73.714 5.854L11.334 46z" fill="#EDC08A" filter="url(#filter1_d)"/><path d="M11.333 46l73.445-7.491v16.748c0 .362-.201.686-.548.786-.511.147-1.42.334-2.897.416-1.735.097-4.833.449-9.833.949-5 .5-9.5-1.408-13.5.092S47 62 42.5 60.797C38 59.594 38 58 34 59c-4 1-5 5-10 5s-6-3.318-8.222-3.318c-.665 0-1.33.432-1.937 1.037-.758.758-2.508.298-2.508-.774V54.11 46z" fill="#FFFCDD" filter="url(#filter2_d)"/><path fill-rule="evenodd" clip-rule="evenodd" d="M45.778 10.62c.36-1.805-.694-6.963 1.11-6.602 9.403 1.88 33.926 14.211 40.897 27.343.146.275.215.585.215.897 0 8.454-.04 8.409-2.222 8.409-14.766-25.556-40-27.825-40-30.047z" fill="#CB7F5A"/><path d="M85 35a2 2 0 0 1 2-2h1v20h-3V35z" fill="#EDC08A"/><path d="M65.778 19.555c-9.424-5.14-20-8.935-20-8.935s-5.245 7.422-10 12.269c-4.322 4.405-10 7.778-13.351 11.111-2.184 2.172-7.649 8.073-11.19 11.92-.735.797.25 2.28 1.297 2.002 2.104-.559 4.782-1.087 7.688-1.213C22.674 46.603 35.778 48 45.778 44.5c12.685-4.44 24.222-1 27.778-1.201C77.11 43.098 85 42.5 85 39.5s-7-13.278-19.222-19.945z" fill="#BF2626" filter="url(#filter3_i)"/></g><defs><filter id="filter0_d" x="-2" y="0" width="100" height="81.178" filterUnits="userSpaceOnUse" color-interpolation-filters="sRGB"><feFlood flood-opacity="0" result="BackgroundImageFix"/><feColorMatrix in="SourceAlpha" values="0 0 0 0 0 0 0 0 0 0 0 0 0 0 0 0 0 0 127 0"/><feOffset dy="6"/><feGaussianBlur stdDeviation="5"/><feColorMatrix values="0 0 0 0 0 0 0 0 0 0 0 0 0 0 0 0 0 0 0.1 0"/><feBlend in2="BackgroundImageFix" result="effect1_dropShadow"/><feBlend in="SourceGraphic" in2="effect1_dropShadow" result="shape"/></filter><filter id="filter1_d" x="11.333" y="35.065" width="76.667" height="32.113" filterUnits="userSpaceOnUse" color-interpolation-filters="sRGB"><feFlood flood-opacity="0" result="BackgroundImageFix"/><feColorMatrix in="SourceAlpha" values="0 0 0 0 0 0 0 0 0 0 0 0 0 0 0 0 0 0 127 0"/><feOffset dy="2"/><feColorMatrix values="0 0 0 0 0.717647 0 0 0 0 0.419608 0 0 0 0 0.27451 0 0 0 1 0"/><feBlend in2="BackgroundImageFix" result="effect1_dropShadow"/><feBlend in="SourceGraphic" in2="effect1_dropShadow" result="shape"/></filter><filter id="filter2_d" x="11.333" y="38.509" width="73.444" height="26.991" filterUnits="userSpaceOnUse" color-interpolation-filters="sRGB"><feFlood flood-opacity="0" result="BackgroundImageFix"/><feColorMatrix in="SourceAlpha" values="0 0 0 0 0 0 0 0 0 0 0 0 0 0 0 0 0 0 127 0"/><feOffset dy="1.5"/><feColorMatrix values="0 0 0 0 1 0 0 0 0 0.937667 0 0 0 0 0.816667 0 0 0 1 0"/><feBlend in2="BackgroundImageFix" result="effect1_dropShadow"/><feBlend in="SourceGraphic" in2="effect1_dropShadow" result="shape"/></filter><filter id="filter3_i" x="10.982" y="10.62" width="74.018" height="37.337" filterUnits="userSpaceOnUse" color-interpolation-filters="sRGB"><feFlood flood-opacity="0" result="BackgroundImageFix"/><feBlend in="SourceGraphic" in2="BackgroundImageFix" result="shape"/><feColorMatrix in="SourceAlpha" values="0 0 0 0 0 0 0 0 0 0 0 0 0 0 0 0 0 0 127 0" result="hardAlpha"/><feOffset dx="-12" dy="3"/><feComposite in2="hardAlpha" operator="arithmetic" k2="-1" k3="1"/><feColorMatrix values="0 0 0 0 0 0 0 0 0 0 0 0 0 0 0 0 0 0 0.15 0"/><feBlend in2="shape" result="effect1_innerShadow"/></filter></defs></svg>
